dist/static/img/vako/svg/tech-ic_05.svg

<svg width="48" height="48" viewBox="0 0 48 48" fill="none" xmlns="http://www.w3.org/2000/svg">
<path d="M20 30.9096C19.2292 35.0122 18.213 37.9968 16.9512 39.8511C15.968 41.2844 14.8911 42.0011 13.7184 42.0011C13.4058 42.0011 13.0204 41.9087 12.5626 41.7251V40.7359C12.786 40.768 13.0483 40.7852 13.3495 40.7852C13.8966 40.7852 14.3375 40.6368 14.6733 40.3407C15.075 39.9799 15.276 39.5746 15.276 39.1252C15.276 38.8182 15.1192 38.1882 14.807 37.2353L12.73 30.9076H14.5892L16.0795 35.6403C16.4144 36.7146 16.5541 37.4649 16.4981 37.8925C17.3134 35.7558 17.8833 33.4277 18.207 30.9109H19.9994M11.7925 39.0935H9.90028C9.83372 35.9597 9.64922 33.0126 9.34771 30.251H9.33104L6.44953 39.0935H5.00844L2.14446 30.251H2.12758C1.9151 32.9024 1.78137 35.8488 1.72567 39.0935H0C0.111471 35.1487 0.390585 31.452 0.836872 28.0007H3.18227L5.91273 36.1504H5.92948L8.6768 28.0007H10.921C11.4124 32.0432 11.7026 35.7413 11.7916 39.0935" fill="#00758F"/>
<path d="M44 38.5785H38.8488V28.1569H40.5822V37.2951H44V38.5772M31.046 36.4923C30.6073 35.8128 30.3877 34.7229 30.3877 33.2195C30.3877 30.5952 31.2172 29.2821 32.8751 29.2821C33.7421 29.2821 34.3785 29.5962 34.7849 30.2239C35.2231 30.9033 35.4426 31.9845 35.4426 33.4669C35.4426 36.1123 34.613 37.4359 32.9552 37.4359C32.0888 37.4359 31.4518 37.1222 31.046 36.4935M37.4972 38.8295L35.5059 37.8847C35.6832 37.7449 35.8516 37.5939 36.004 37.4192C36.8497 36.4632 37.2723 35.0478 37.2723 33.1737C37.2723 29.7255 35.8651 28.0007 33.0514 28.0007C31.6714 28.0007 30.5956 28.438 29.8255 29.3138C28.9798 30.271 28.5572 31.6814 28.5572 33.5444C28.5572 35.3764 28.9315 36.7205 29.6801 37.5742C30.3624 38.346 31.3942 38.7323 32.7762 38.7323C33.2915 38.7323 33.7647 38.6712 34.1943 38.5491L36.7871 40.001L37.4939 38.8293M27.8026 35.6892C27.8026 36.5733 27.4651 37.2986 26.7921 37.8665C26.1189 38.4318 25.2138 38.7152 24.0812 38.7152C23.0216 38.7152 21.995 38.3891 21 37.7419L21.4654 36.8467C22.3214 37.2584 23.0961 37.464 23.7913 37.464C24.4438 37.464 24.9542 37.3243 25.3238 37.0483C25.6924 36.7703 25.9133 36.3824 25.9133 35.8908C25.9133 35.272 25.4647 34.7433 24.6418 34.2994C23.882 33.8982 22.3637 33.0607 22.3637 33.0607C21.5412 32.4832 21.1284 31.8635 21.1284 30.8431C21.1284 29.9987 21.436 29.3161 22.0503 28.7972C22.6661 28.2769 23.4607 28.0167 24.4337 28.0167C25.4397 28.0167 26.3539 28.2749 27.1777 28.7898L26.7593 29.6844C26.0544 29.3969 25.3599 29.2526 24.6744 29.2526C24.1185 29.2526 23.6898 29.3811 23.3913 29.6394C23.0909 29.8955 22.9052 30.2252 22.9052 30.627C22.9052 31.2443 23.3636 31.7795 24.2097 32.2321C24.9792 32.6335 26.5349 33.4875 26.5349 33.4875C27.3813 34.0639 27.8032 34.6785 27.8032 35.6909" fill="#F29111"/>
<path d="M45.4117 39.001H45.7143V37.3408H46.1104V37.0016H45V37.3408H45.4114L45.4117 39.001ZM47.7148 39.001H48V37.001H47.571L47.2218 38.3641L46.8417 37.001H46.4282V39.001H46.6981V37.4786H46.7135L47.1116 39.001H47.3173L47.7148 37.4786L47.7148 39.001Z" fill="#F29111"/>
<path d="M24.4888 6.00146C23.8938 5.99281 23.375 6.21201 23.1073 6.85447C22.6481 7.93588 23.7875 8.99928 24.1791 9.54857C24.4679 9.93055 24.8422 10.3636 25.0452 10.7953C25.1644 11.0782 25.1988 11.378 25.3184 11.677C25.5901 12.4085 25.8446 13.2234 26.2021 13.9061C26.3886 14.2554 26.5923 14.6214 26.8304 14.936C26.9677 15.12 27.2049 15.202 27.2562 15.5022C27.0189 15.8344 27.0003 16.3331 26.8645 16.7498C26.2528 18.6285 26.4903 20.9567 27.3579 22.3369C27.6292 22.7525 28.2761 23.6672 29.1439 23.3176C29.909 23.0188 29.7389 22.0709 29.9598 21.24C30.0107 21.039 29.9767 20.9072 30.0784 20.7743V20.8079C30.3163 21.2728 30.5551 21.7207 30.776 22.1881C31.3039 23.0021 32.2213 23.8499 32.9868 24.4148C33.3937 24.7152 33.7171 25.2299 34.2273 25.4135V25.3631H34.1938C34.0913 25.2139 33.9386 25.147 33.8024 25.0312C33.4965 24.7317 33.1574 24.3656 32.9186 24.0333C32.2048 23.1025 31.5749 22.071 31.0151 21.0068C30.7422 20.4901 30.5046 19.9254 30.2834 19.4105C30.1816 19.2119 30.1816 18.9117 30.0112 18.8122C29.7554 19.1776 29.3824 19.4938 29.1956 19.9411C28.8723 20.6569 28.8385 21.5382 28.7186 22.4526C28.651 22.47 28.6851 22.4528 28.651 22.4859C28.1075 22.3529 27.9204 21.8042 27.716 21.3398C27.2059 20.1577 27.1202 18.2617 27.563 16.8987C27.6814 16.5501 28.193 15.453 27.9881 15.1198C27.8853 14.8025 27.5454 14.6213 27.3587 14.3708C27.1382 14.055 26.8989 13.6565 26.7474 13.3066C26.3391 12.3758 26.1339 11.3443 25.6933 10.4136C25.4891 9.9805 25.1311 9.53189 24.843 9.13322C24.5193 8.68412 24.1628 8.36829 23.9072 7.83651C23.8229 7.65322 23.7039 7.35352 23.8393 7.1546C23.8727 7.02132 23.9418 6.97139 24.078 6.93799C24.2978 6.75502 24.9274 6.98736 25.1481 7.08722C25.7777 7.33592 26.3047 7.5698 26.8309 7.91813C27.0692 8.08472 27.3244 8.40088 27.63 8.4847H27.9878C28.5317 8.60021 29.1444 8.51688 29.6547 8.66717C30.5553 8.9496 31.3711 9.3653 32.103 9.81407C34.3296 11.1943 36.1661 13.1573 37.4065 15.5011C37.6111 15.883 37.6969 16.2324 37.8836 16.6308C38.2407 17.4472 38.6835 18.2787 39.0402 19.076C39.397 19.8577 39.7376 20.6552 40.2479 21.3043C40.5022 21.6529 41.5228 21.8359 41.9819 22.0189C42.3213 22.1681 42.8489 22.3013 43.1553 22.4839C43.7333 22.8325 44.3102 23.2322 44.8549 23.6152C45.1262 23.8148 45.9762 24.2301 46.0274 24.5632C44.6669 24.5299 43.613 24.663 42.7292 25.0291C42.4742 25.1288 42.0665 25.1287 42.0316 25.4447C42.1686 25.5775 42.1851 25.7937 42.305 25.9774C42.5084 26.3099 42.8647 26.7582 43.1888 26.9916C43.5459 27.2579 43.9028 27.5229 44.2773 27.7557C44.94 28.1565 45.6882 28.3883 46.3336 28.7871C46.7089 29.0196 47.0817 29.3188 47.4566 29.5688C47.643 29.7018 47.761 29.9183 48 30.0006V29.95C47.8801 29.8007 47.8469 29.5848 47.7285 29.4175C47.5589 29.2525 47.3883 29.1019 47.2179 28.9363C46.7246 28.2879 46.1117 27.7231 45.4504 27.2573C44.9058 26.8905 43.7147 26.3912 43.4948 25.7781C43.4948 25.7781 43.4768 25.7606 43.4601 25.7442C43.8342 25.7105 44.2774 25.5772 44.6343 25.4764C45.2115 25.3271 45.7388 25.3607 46.3338 25.2115C46.6063 25.1445 46.8784 25.0611 47.1516 24.9794V24.8287C46.8439 24.53 46.624 24.1301 46.3014 23.8479C45.4352 23.1166 44.4818 22.4023 43.4956 21.8022C42.9677 21.4695 42.2878 21.2545 41.7263 20.9713C41.5232 20.8713 41.1835 20.8221 41.064 20.6549C40.7577 20.2892 40.587 19.8076 40.3664 19.3746C39.8738 18.461 39.397 17.4467 38.9723 16.4807C38.6664 15.8327 38.4793 15.1848 38.1053 14.5856C36.3528 11.758 34.4493 10.0463 31.5251 8.36647C30.8959 8.01684 30.1478 7.86752 29.3496 7.68456C28.9239 7.66714 28.4994 7.63468 28.0739 7.61835C27.8015 7.50144 27.5288 7.18513 27.2912 7.03556C26.6852 6.66162 25.4816 6.01474 24.4904 6L24.4888 6.00146ZM28.6836 10.1118C28.3952 10.1118 28.1916 10.146 27.9863 10.1954V10.2286H28.0195C28.1568 10.494 28.3953 10.6785 28.5638 10.9109C28.7008 11.177 28.8199 11.442 28.9558 11.7085C28.9725 11.6921 28.9886 11.6749 28.9886 11.6749C29.2284 11.5094 29.3474 11.2435 29.3474 10.844C29.2446 10.7268 29.2286 10.6113 29.1428 10.4944C29.0411 10.3284 28.8199 10.245 28.6836 10.1118Z" fill="#00758F"/>
</svg>

<svg width="48" height="48" viewBox="0 0 48 48" fill="none" xmlns="http://www.w3.org/2000/svg"><path d="M20 30.91c-.77 4.102-1.787 7.087-3.049 8.941-.983 1.433-2.06 2.15-3.233 2.15-.312 0-.698-.092-1.155-.276v-.99c.223.033.485.05.787.05.547 0 .988-.148 1.323-.444.402-.361.603-.766.603-1.216 0-.307-.157-.937-.469-1.89l-2.077-6.327h1.86l1.49 4.732c.334 1.075.474 1.825.418 2.252.815-2.136 1.385-4.464 1.709-6.981h1.792m-8.206 8.182H9.9c-.066-3.133-.25-6.08-.552-8.842H9.33l-2.88 8.842H5.008l-2.864-8.842h-.016c-.213 2.651-.347 5.598-.402 8.842H0c.111-3.944.39-7.641.837-11.092h2.345l2.73 8.15h.017L8.677 28h2.244c.491 4.042.782 7.74.87 11.092" fill="#00758F"/><path d="M44 38.578h-5.151V28.157h1.733v9.138H44v1.282m-12.954-2.085c-.439-.68-.658-1.77-.658-3.273 0-2.624.83-3.937 2.487-3.937.867 0 1.504.314 1.91.942.438.68.658 1.76.658 3.243 0 2.645-.83 3.969-2.488 3.969-.866 0-1.503-.314-1.909-.943m6.451 2.337l-1.991-.945c.177-.14.346-.291.498-.466.846-.956 1.268-2.371 1.268-4.245 0-3.448-1.407-5.173-4.22-5.173-1.38 0-2.456.437-3.226 1.313-.846.957-1.269 2.367-1.269 4.23 0 1.832.375 3.177 1.123 4.03.682.772 1.714 1.158 3.096 1.158.515 0 .989-.06 1.418-.183l2.593 1.452.707-1.172m-9.691-3.14c0 .884-.338 1.61-1.01 2.178-.674.565-1.58.848-2.712.848-1.06 0-2.086-.326-3.081-.973l.465-.895c.856.411 1.631.617 2.326.617.653 0 1.163-.14 1.533-.416.368-.278.59-.666.59-1.157 0-.619-.45-1.148-1.272-1.592-.76-.4-2.278-1.238-2.278-1.238-.823-.578-1.236-1.198-1.236-2.218 0-.844.308-1.527.922-2.046.616-.52 1.41-.78 2.384-.78 1.006 0 1.92.258 2.744.773l-.419.894a5.492 5.492 0 00-2.085-.431c-.555 0-.984.128-1.283.386-.3.256-.486.586-.486.988 0 .617.459 1.152 1.305 1.605.77.401 2.325 1.255 2.325 1.255.846.577 1.268 1.191 1.268 2.204m17.609 3.31h.302v-1.66h.396V37H45v.34h.411V39zm2.303 0H48v-2h-.429l-.35 1.363-.38-1.363h-.413v2h.27v-1.522h.016L47.112 39h.205l.398-1.522V39z" fill="#F29111"/><path d="M24.489 6.001c-.595-.008-1.114.211-1.382.853-.459 1.082.68 2.145 1.072 2.695.289.382.663.815.866 1.246.12.283.154.583.273.882.272.732.527 1.546.884 2.23.187.348.39.714.628 1.029.138.184.375.266.426.566-.237.332-.256.831-.392 1.248-.611 1.878-.374 4.207.494 5.587.271.416.918 1.33 1.786.98.765-.298.595-1.246.816-2.077.05-.201.017-.333.118-.466v.034c.238.465.477.913.698 1.38.528.814 1.445 1.662 2.21 2.227.408.3.731.815 1.241.998v-.05h-.033c-.103-.15-.255-.216-.392-.332a8.241 8.241 0 01-.883-.998c-.714-.93-1.344-1.962-1.904-3.026-.273-.517-.51-1.082-.732-1.597-.101-.198-.101-.498-.272-.598-.256.366-.629.682-.815 1.13-.324.715-.358 1.596-.477 2.51-.068.018-.034 0-.068.034-.543-.133-.73-.682-.935-1.146-.51-1.182-.596-3.078-.153-4.441.118-.349.63-1.446.425-1.78-.103-.316-.443-.498-.63-.748a6.55 6.55 0 01-.61-1.064c-.409-.931-.614-1.963-1.055-2.893-.204-.434-.562-.882-.85-1.28-.324-.45-.68-.766-.936-1.297-.084-.184-.203-.483-.068-.682.034-.134.103-.184.239-.217.22-.183.85.05 1.07.15.63.248 1.157.482 1.683.83.238.167.493.483.799.567h.358c.544.115 1.156.032 1.667.182.9.283 1.716.698 2.448 1.147a14.881 14.881 0 015.303 5.687c.205.382.29.731.478 1.13.357.816.8 1.648 1.156 2.445.357.782.698 1.58 1.208 2.228.254.349 1.275.532 1.734.715.34.15.867.282 1.173.465.578.348 1.155.748 1.7 1.131.271.2 1.121.615 1.172.948-1.36-.033-2.414.1-3.298.466-.255.1-.663.1-.697.416.137.133.153.349.273.532.203.333.56.781.884 1.015.357.266.714.53 1.088.764.663.4 1.411.632 2.057 1.031.375.233.748.532 1.123.782.186.133.304.35.543.432v-.051c-.12-.15-.153-.365-.272-.532-.17-.165-.34-.316-.51-.482a8.031 8.031 0 00-1.768-1.679c-.544-.367-1.735-.866-1.955-1.479l-.035-.034c.374-.034.817-.167 1.174-.268.578-.149 1.105-.115 1.7-.264.272-.067.544-.15.818-.233v-.15c-.308-.299-.528-.699-.85-.981a22.777 22.777 0 00-2.806-2.046c-.528-.332-1.208-.547-1.77-.83-.203-.1-.542-.15-.662-.317-.306-.366-.477-.847-.698-1.28a41.002 41.002 0 01-1.394-2.894c-.306-.648-.493-1.296-.867-1.895-1.752-2.828-3.656-4.54-6.58-6.22-.63-.35-1.377-.498-2.175-.681-.426-.018-.85-.05-1.276-.067-.273-.117-.545-.433-.783-.582-.606-.374-1.81-1.021-2.8-1.036l-.002.001zm4.195 4.11c-.289 0-.492.035-.698.084v.034h.034c.137.265.375.45.544.682.137.266.256.531.392.798l.033-.034c.24-.166.358-.432.358-.831-.102-.117-.118-.233-.204-.35-.102-.166-.323-.249-.46-.382z" fill="#00758F"/></svg>
